images/WebStudioSmall.svg

<svg width="128" height="18" viewBox="0 0 128 18" fill="none" xmlns="http://www.w3.org/2000/svg">
<path d="M7.018 1.424H9.812L11.572 6.594L13.332 1.424H16.148L13.486 8.53L15.466 13.524L19.888 1.38H23.188L16.83 17H14.278L11.572 10.444L8.866 17H6.314L0 1.38H3.256L7.7 13.524L9.636 8.53L7.018 1.424ZM29.0902 17.22C28.1662 17.22 27.3302 17.066 26.5822 16.758C25.8342 16.4353 25.1962 16.0027 24.6682 15.46C24.1402 14.9173 23.7295 14.2867 23.4362 13.568C23.1575 12.8493 23.0182 12.094 23.0182 11.302C23.0182 10.4807 23.1575 9.71067 23.4362 8.992C23.7149 8.25867 24.1182 7.62067 24.6462 7.078C25.1742 6.52067 25.8122 6.08067 26.5602 5.758C27.3229 5.43533 28.1735 5.274 29.1122 5.274C30.0509 5.274 30.8869 5.43533 31.6202 5.758C32.3682 6.08067 32.9989 6.51333 33.5122 7.056C34.0402 7.59867 34.4362 8.22933 34.7002 8.948C34.9789 9.66667 35.1182 10.4147 35.1182 11.192C35.1182 11.3827 35.1109 11.566 35.0962 11.742C35.0962 11.918 35.0815 12.0647 35.0522 12.182H26.1422C26.1862 12.6367 26.2962 13.04 26.4722 13.392C26.6482 13.744 26.8755 14.0447 27.1542 14.294C27.4329 14.5433 27.7482 14.734 28.1002 14.866C28.4522 14.998 28.8189 15.064 29.2002 15.064C29.7869 15.064 30.3369 14.9247 30.8502 14.646C31.3782 14.3527 31.7375 13.9713 31.9282 13.502L34.4582 14.206C34.0329 15.086 33.3509 15.812 32.4122 16.384C31.4882 16.9413 30.3809 17.22 29.0902 17.22ZM32.0822 10.268C32.0089 9.40267 31.6862 8.71333 31.1142 8.2C30.5569 7.672 29.8749 7.408 29.0682 7.408C28.6722 7.408 28.2982 7.48133 27.9462 7.628C27.6089 7.76 27.3082 7.95067 27.0442 8.2C26.7802 8.44933 26.5602 8.75 26.3842 9.102C26.2229 9.454 26.1275 9.84267 26.0982 10.268H32.0822ZM44.1301 17.22C43.2501 17.22 42.4654 17.022 41.7761 16.626C41.0868 16.23 40.5441 15.6873 40.1481 14.998V17H37.5741V0.94H40.5221V7.496C40.9328 6.792 41.4681 6.24933 42.1281 5.868C42.8028 5.472 43.5874 5.274 44.4821 5.274C45.2301 5.274 45.9121 5.43533 46.5281 5.758C47.1441 6.08067 47.6721 6.51333 48.1121 7.056C48.5668 7.59867 48.9114 8.23667 49.1461 8.97C49.3954 9.70333 49.5201 10.4733 49.5201 11.28C49.5201 12.116 49.3808 12.8933 49.1021 13.612C48.8381 14.3307 48.4641 14.9613 47.9801 15.504C47.4961 16.032 46.9241 16.45 46.2641 16.758C45.6041 17.066 44.8928 17.22 44.1301 17.22ZM43.3161 14.712C43.7854 14.712 44.2181 14.624 44.6141 14.448C45.0101 14.2573 45.3474 14.008 45.6261 13.7C45.9048 13.392 46.1174 13.0327 46.2641 12.622C46.4254 12.2113 46.5061 11.7713 46.5061 11.302C46.5061 10.8327 46.4328 10.3853 46.2861 9.96C46.1394 9.53467 45.9268 9.16067 45.6481 8.838C45.3841 8.51533 45.0688 8.25867 44.7021 8.068C44.3354 7.87733 43.9321 7.782 43.4921 7.782C42.8321 7.782 42.2381 8.002 41.7101 8.442C41.1968 8.86733 40.8008 9.39533 40.5221 10.026V12.776C40.6248 13.0693 40.7714 13.3333 40.9621 13.568C41.1674 13.8027 41.3948 14.008 41.6441 14.184C41.8934 14.3453 42.1648 14.4773 42.4581 14.58C42.7514 14.668 43.0374 14.712 43.3161 14.712Z" fill="#2196F3"/>
<path d="M67.7146 5.472C67.612 5.36933 67.4213 5.23 67.1426 5.054C66.8786 4.878 66.5486 4.70933 66.1526 4.548C65.7713 4.372 65.3533 4.22533 64.8986 4.108C64.444 3.99067 63.982 3.932 63.5126 3.932C62.6766 3.932 62.0533 4.086 61.6426 4.394C61.232 4.702 61.0266 5.13467 61.0266 5.692C61.0266 6.01467 61.1 6.286 61.2466 6.506C61.408 6.71133 61.6353 6.89467 61.9286 7.056C62.222 7.21733 62.5886 7.364 63.0286 7.496C63.4833 7.628 64.004 7.76733 64.5906 7.914C65.3533 8.11933 66.0426 8.33933 66.6586 8.574C67.2893 8.80867 67.8173 9.102 68.2426 9.454C68.6826 9.806 69.02 10.2313 69.2546 10.73C69.4893 11.214 69.6066 11.8153 69.6066 12.534C69.6066 13.37 69.4453 14.0887 69.1226 14.69C68.8146 15.2767 68.3893 15.7533 67.8466 16.12C67.3186 16.4867 66.7026 16.758 65.9986 16.934C65.3093 17.0953 64.5833 17.176 63.8206 17.176C62.6473 17.176 61.4886 17 60.3446 16.648C59.2006 16.296 58.174 15.7973 57.2646 15.152L58.6066 12.534C58.7386 12.666 58.9733 12.842 59.3106 13.062C59.6626 13.2673 60.0733 13.48 60.5426 13.7C61.012 13.9053 61.5326 14.0813 62.1046 14.228C62.6766 14.3747 63.2633 14.448 63.8646 14.448C65.5366 14.448 66.3726 13.9127 66.3726 12.842C66.3726 12.5047 66.2773 12.2187 66.0866 11.984C65.896 11.7493 65.6246 11.544 65.2726 11.368C64.9206 11.192 64.4953 11.0307 63.9966 10.884C63.498 10.7373 62.9406 10.576 62.3246 10.4C61.5766 10.1947 60.924 9.97467 60.3666 9.74C59.824 9.49067 59.3693 9.20467 59.0026 8.882C58.636 8.54467 58.3573 8.16333 58.1666 7.738C57.9906 7.298 57.9026 6.77733 57.9026 6.176C57.9026 5.384 58.0493 4.68 58.3426 4.064C58.636 3.448 59.0393 2.93467 59.5526 2.524C60.0806 2.11333 60.6893 1.80533 61.3786 1.6C62.068 1.38 62.8086 1.27 63.6006 1.27C64.7006 1.27 65.7126 1.446 66.6366 1.798C67.5606 2.13533 68.3673 2.53867 69.0566 3.008L67.7146 5.472ZM79.0539 16.406C78.6579 16.582 78.1739 16.758 77.6019 16.934C77.0299 17.11 76.4286 17.198 75.7979 17.198C75.3872 17.198 74.9986 17.1467 74.6319 17.044C74.2799 16.9413 73.9646 16.78 73.6859 16.56C73.4219 16.3253 73.2092 16.032 73.0479 15.68C72.8866 15.3133 72.8059 14.8733 72.8059 14.36V7.738H71.2879V5.472H72.8059V1.732H75.7539V5.472H78.1739V7.738H75.7539V13.37C75.7539 13.7807 75.8566 14.074 76.0619 14.25C76.2819 14.4113 76.5459 14.492 76.8539 14.492C77.1619 14.492 77.4626 14.4407 77.7559 14.338C78.0492 14.2353 78.2839 14.1473 78.4599 14.074L79.0539 16.406ZM84.7693 17.22C83.5813 17.22 82.6793 16.8387 82.0633 16.076C81.4473 15.3133 81.1393 14.184 81.1393 12.688V5.472H84.0873V12.05C84.0873 13.8247 84.7253 14.712 86.0013 14.712C86.5733 14.712 87.1233 14.5433 87.6513 14.206C88.1939 13.854 88.6339 13.326 88.9713 12.622V5.472H91.9193V13.612C91.9193 13.92 91.9706 14.14 92.0733 14.272C92.1906 14.404 92.3739 14.4773 92.6233 14.492V17C92.3299 17.0587 92.0806 17.0953 91.8753 17.11C91.6846 17.1247 91.5086 17.132 91.3473 17.132C90.8193 17.132 90.3866 17.0147 90.0493 16.78C89.7266 16.5307 89.5359 16.1933 89.4773 15.768L89.4113 14.844C88.8979 15.636 88.2379 16.23 87.4313 16.626C86.6246 17.022 85.7373 17.22 84.7693 17.22ZM100.283 17.22C99.4909 17.22 98.7575 17.066 98.0829 16.758C97.4082 16.45 96.8289 16.0247 96.3449 15.482C95.8609 14.9393 95.4795 14.3087 95.2009 13.59C94.9369 12.8567 94.8049 12.072 94.8049 11.236C94.8049 10.4 94.9295 9.62267 95.1789 8.904C95.4429 8.18533 95.8022 7.55467 96.2569 7.012C96.7115 6.46933 97.2542 6.044 97.8849 5.736C98.5155 5.428 99.2049 5.274 99.9529 5.274C100.804 5.274 101.566 5.47933 102.241 5.89C102.93 6.30067 103.466 6.836 103.847 7.496V0.94H106.795V13.612C106.795 13.92 106.846 14.14 106.949 14.272C107.052 14.404 107.228 14.4773 107.477 14.492V17C106.964 17.1027 106.546 17.154 106.223 17.154C105.695 17.154 105.262 17.022 104.925 16.758C104.588 16.494 104.397 16.1493 104.353 15.724L104.287 14.998C103.862 15.7313 103.282 16.2887 102.549 16.67C101.83 17.0367 101.075 17.22 100.283 17.22ZM101.053 14.712C101.332 14.712 101.618 14.668 101.911 14.58C102.204 14.4773 102.476 14.338 102.725 14.162C102.974 13.986 103.194 13.7807 103.385 13.546C103.59 13.3113 103.744 13.0547 103.847 12.776V10.026C103.73 9.70333 103.561 9.41 103.341 9.146C103.136 8.86733 102.894 8.63267 102.615 8.442C102.351 8.23667 102.065 8.07533 101.757 7.958C101.464 7.84067 101.17 7.782 100.877 7.782C100.437 7.782 100.026 7.87733 99.6449 8.068C99.2782 8.25867 98.9629 8.52267 98.6989 8.86C98.4349 9.18267 98.2295 9.55667 98.0829 9.982C97.9362 10.4073 97.8629 10.8473 97.8629 11.302C97.8629 11.786 97.9435 12.2333 98.1049 12.644C98.2662 13.0547 98.4862 13.414 98.7649 13.722C99.0435 14.03 99.3735 14.272 99.7549 14.448C100.151 14.624 100.584 14.712 101.053 14.712ZM110.349 17V5.472H113.297V17H110.349ZM110.349 3.866V0.94H113.297V3.866H110.349ZM121.94 17.22C121.001 17.22 120.158 17.0587 119.41 16.736C118.662 16.4133 118.024 15.9807 117.496 15.438C116.983 14.8807 116.587 14.2427 116.308 13.524C116.029 12.8053 115.89 12.05 115.89 11.258C115.89 10.4513 116.029 9.68867 116.308 8.97C116.587 8.25133 116.983 7.62067 117.496 7.078C118.024 6.52067 118.662 6.08067 119.41 5.758C120.158 5.43533 121.001 5.274 121.94 5.274C122.879 5.274 123.715 5.43533 124.448 5.758C125.196 6.08067 125.827 6.52067 126.34 7.078C126.868 7.62067 127.271 8.25133 127.55 8.97C127.829 9.68867 127.968 10.4513 127.968 11.258C127.968 12.05 127.829 12.8053 127.55 13.524C127.271 14.2427 126.875 14.8807 126.362 15.438C125.849 15.9807 125.218 16.4133 124.47 16.736C123.722 17.0587 122.879 17.22 121.94 17.22ZM118.926 11.258C118.926 11.7713 118.999 12.2407 119.146 12.666C119.307 13.0767 119.52 13.436 119.784 13.744C120.063 14.052 120.385 14.294 120.752 14.47C121.119 14.6313 121.515 14.712 121.94 14.712C122.365 14.712 122.761 14.6313 123.128 14.47C123.495 14.294 123.81 14.052 124.074 13.744C124.353 13.436 124.565 13.0693 124.712 12.644C124.873 12.2187 124.954 11.7493 124.954 11.236C124.954 10.7373 124.873 10.2753 124.712 9.85C124.565 9.42467 124.353 9.058 124.074 8.75C123.81 8.442 123.495 8.20733 123.128 8.046C122.761 7.87 122.365 7.782 121.94 7.782C121.515 7.782 121.119 7.87 120.752 8.046C120.385 8.222 120.063 8.464 119.784 8.772C119.52 9.08 119.307 9.44667 119.146 9.872C118.999 10.2973 118.926 10.7593 118.926 11.258Z" fill="white"/>
</svg>

<svg width="128" height="18" fill="none" xmlns="http://www.w3.org/2000/svg"><path d="M7.018 1.424h2.794l1.76 5.17 1.76-5.17h2.816L13.486 8.53l1.98 4.994L19.888 1.38h3.3L16.83 17h-2.552l-2.706-6.556L8.866 17H6.314L0 1.38h3.256L7.7 13.524 9.636 8.53 7.018 1.424zM29.09 17.22c-.924 0-1.76-.154-2.508-.462a5.89 5.89 0 01-1.914-1.298 5.86 5.86 0 01-1.232-1.892 6.212 6.212 0 01-.418-2.266c0-.821.14-1.591.418-2.31a5.526 5.526 0 011.21-1.914 5.723 5.723 0 011.914-1.32c.763-.323 1.614-.484 2.552-.484.939 0 1.775.161 2.508.484a5.641 5.641 0 011.892 1.298A5.305 5.305 0 0134.7 8.948c.279.719.418 1.467.418 2.244 0 .19-.007.374-.022.55 0 .176-.014.323-.044.44h-8.91c.044.455.154.858.33 1.21a2.971 2.971 0 001.628 1.474c.352.132.719.198 1.1.198.587 0 1.137-.14 1.65-.418.528-.293.887-.675 1.078-1.144l2.53.704c-.425.88-1.107 1.606-2.046 2.178-.924.557-2.031.836-3.322.836zm2.992-6.952c-.073-.865-.396-1.555-.968-2.068-.557-.528-1.24-.792-2.046-.792-.396 0-.77.073-1.122.22a2.775 2.775 0 00-.902.572c-.264.25-.484.55-.66.902-.161.352-.256.74-.286 1.166h5.984zM44.13 17.22c-.88 0-1.665-.198-2.354-.594a4.338 4.338 0 01-1.628-1.628V17h-2.574V.94h2.948v6.556c.41-.704.946-1.247 1.606-1.628.675-.396 1.46-.594 2.354-.594.748 0 1.43.161 2.046.484a5.015 5.015 0 011.584 1.298c.455.543.8 1.18 1.034 1.914.25.733.374 1.503.374 2.31 0 .836-.14 1.613-.418 2.332a5.832 5.832 0 01-1.122 1.892 5.402 5.402 0 01-1.716 1.254 4.983 4.983 0 01-2.134.462zm-.814-2.508c.47 0 .902-.088 1.298-.264.396-.19.733-.44 1.012-.748s.491-.667.638-1.078c.161-.41.242-.85.242-1.32 0-.47-.073-.917-.22-1.342-.147-.425-.36-.8-.638-1.122a2.997 2.997 0 00-.946-.77 2.583 2.583 0 00-1.21-.286c-.66 0-1.254.22-1.782.66-.513.425-.91.953-1.188 1.584v2.75c.103.293.25.557.44.792.205.235.433.44.682.616.25.161.52.293.814.396.293.088.58.132.858.132z" fill="#2196F3"/><path d="M67.715 5.472c-.103-.103-.294-.242-.572-.418a5.616 5.616 0 00-.99-.506 7.4 7.4 0 00-1.254-.44 5.524 5.524 0 00-1.386-.176c-.836 0-1.46.154-1.87.462-.411.308-.616.74-.616 1.298 0 .323.073.594.22.814a2.2 2.2 0 00.682.55c.293.161.66.308 1.1.44.454.132.975.271 1.562.418.762.205 1.452.425 2.068.66.63.235 1.158.528 1.584.88.44.352.777.777 1.012 1.276.234.484.352 1.085.352 1.804 0 .836-.162 1.555-.484 2.156a3.867 3.867 0 01-1.276 1.43 5.578 5.578 0 01-1.848.814 9.533 9.533 0 01-2.178.242c-1.174 0-2.332-.176-3.476-.528a10.734 10.734 0 01-3.08-1.496l1.342-2.618c.132.132.366.308.704.528.352.205.762.418 1.232.638.469.205.99.381 1.562.528.572.147 1.158.22 1.76.22 1.672 0 2.508-.535 2.508-1.606 0-.337-.096-.623-.286-.858-.191-.235-.462-.44-.814-.616a7.794 7.794 0 00-1.276-.484 223.85 223.85 0 00-1.672-.484c-.748-.205-1.401-.425-1.958-.66a5.573 5.573 0 01-1.364-.858 3.486 3.486 0 01-.836-1.144c-.176-.44-.264-.96-.264-1.562 0-.792.146-1.496.44-2.112a4.321 4.321 0 011.21-1.54 5.498 5.498 0 011.826-.924c.689-.22 1.43-.33 2.222-.33 1.1 0 2.112.176 3.036.528.924.337 1.73.74 2.42 1.21l-1.342 2.464zm11.339 10.934c-.396.176-.88.352-1.452.528a6.1 6.1 0 01-1.804.264c-.41 0-.8-.051-1.166-.154a2.757 2.757 0 01-.946-.484 2.618 2.618 0 01-.638-.88c-.161-.367-.242-.807-.242-1.32V7.738h-1.518V5.472h1.518v-3.74h2.948v3.74h2.42v2.266h-2.42v5.632c0 .41.103.704.308.88.22.161.484.242.792.242.308 0 .609-.051.902-.154a13.6 13.6 0 00.704-.264l.594 2.332zm5.715.814c-1.188 0-2.09-.381-2.706-1.144-.616-.763-.924-1.892-.924-3.388V5.472h2.948v6.578c0 1.775.638 2.662 1.914 2.662.572 0 1.122-.169 1.65-.506.543-.352.983-.88 1.32-1.584v-7.15h2.948v8.14c0 .308.052.528.154.66.118.132.3.205.55.22V17a6.156 6.156 0 01-1.276.132c-.528 0-.96-.117-1.298-.352a1.482 1.482 0 01-.572-1.012l-.066-.924a4.914 4.914 0 01-1.98 1.782c-.806.396-1.694.594-2.662.594zm15.514 0a5.234 5.234 0 01-2.2-.462 5.187 5.187 0 01-1.738-1.276A6.155 6.155 0 0195.2 13.59a6.897 6.897 0 01-.396-2.354c0-.836.124-1.613.374-2.332a6.297 6.297 0 011.078-1.892 4.917 4.917 0 011.628-1.276 4.648 4.648 0 012.068-.462c.851 0 1.613.205 2.288.616.689.41 1.225.946 1.606 1.606V.94h2.948v12.672c0 .308.051.528.154.66.103.132.279.205.528.22V17c-.513.103-.931.154-1.254.154-.528 0-.961-.132-1.298-.396a1.454 1.454 0 01-.572-1.034l-.066-.726a4.237 4.237 0 01-1.738 1.672 4.922 4.922 0 01-2.266.55zm.77-2.508c.279 0 .565-.044.858-.132a3.288 3.288 0 001.474-1.034c.205-.235.359-.491.462-.77v-2.75a2.92 2.92 0 00-.506-.88 2.994 2.994 0 00-.726-.704 3.31 3.31 0 00-.858-.484 2.354 2.354 0 00-.88-.176c-.44 0-.851.095-1.232.286-.367.19-.682.455-.946.792-.264.323-.47.697-.616 1.122a4.02 4.02 0 00-.22 1.32c0 .484.08.931.242 1.342.161.41.381.77.66 1.078.278.308.609.55.99.726.396.176.829.264 1.298.264zM110.349 17V5.472h2.948V17h-2.948zm0-13.134V.94h2.948v2.926h-2.948zM121.94 17.22c-.939 0-1.782-.161-2.53-.484a5.89 5.89 0 01-1.914-1.298 6.01 6.01 0 01-1.188-1.914 6.206 6.206 0 01-.418-2.266c0-.807.139-1.57.418-2.288a5.756 5.756 0 011.188-1.892 5.723 5.723 0 011.914-1.32c.748-.323 1.591-.484 2.53-.484.939 0 1.775.161 2.508.484a5.486 5.486 0 011.892 1.32 5.577 5.577 0 011.21 1.892c.279.719.418 1.481.418 2.288 0 .792-.139 1.547-.418 2.266a6.01 6.01 0 01-1.188 1.914 5.638 5.638 0 01-1.892 1.298c-.748.323-1.591.484-2.53.484zm-3.014-5.962c0 .513.073.983.22 1.408.161.41.374.77.638 1.078.279.308.601.55.968.726a2.92 2.92 0 001.188.242c.425 0 .821-.08 1.188-.242.367-.176.682-.418.946-.726.279-.308.491-.675.638-1.1.161-.425.242-.895.242-1.408 0-.499-.081-.96-.242-1.386a3.146 3.146 0 00-.638-1.1 2.62 2.62 0 00-.946-.704 2.712 2.712 0 00-1.188-.264c-.425 0-.821.088-1.188.264a3.11 3.11 0 00-.968.726 3.668 3.668 0 00-.638 1.1c-.147.425-.22.887-.22 1.386z" fill="#fff"/></svg>
